X:1
T:The Victory May Depend on You
T:The Victory May Depend on You
T:James Henry Fillmore
T:George Orlia Webster, 1906
T:Public Domain Courtesy of the Cyber Hymnal™
T:Public Domain Courtesy of the Cyber Hymnal™
C:James Henry Fillmore
Z:Public Domain
Z:Courtesy of the Cyber Hymnal™
%%score ( 1 2 ) ( 3 4 )
L:1/8
Q:1/4=100
M:4/4
K:D
V:1 treble 
V:2 treble 
V:3 bass 
V:4 bass 
V:1
 [DF]>[EG] | [FA]>[FA] [FA]>[GB] [FA]>[EG] [DF]>[EG] | [FA]>[FA] [FA]>[GB] [FA]2 [FA]>[FA] | %3
w: 1.~Thro’ the|land a call is sound- ing, And it|comes to age and youth; ’Tis a|
w: 2.~See the|might- y hosts of e- vil Spread- ing|death through- out the land; Who is|
w: 3.~Lo, a|tri- umph day is com- ing, When our|arms shall be laid down; Then each|
 [GB]>[G^A] [GB]>[Gc] [Gd]>[Gc] [Gd]>[GB] | [FA]>[GB] [FA]>[DF] !fermata![CE]2 [DF]>[EG] | %5
w: sum- mons to the con- flict, In the|cause of right and truth: To the|
w: there will an- swer quick- ly, And the|hosts of sin with- stand? Do not|
w: faith- ful, loy- al sol- dier Shall re-|ceive a vic- tor’s crown; Would you|
 [FA]>[FA] [FA]>[GB] [FA]>[EG] [DF]>[FA] | [GB]>[GB] [GB]>[Gc] !fermata![Gd]2 [Gc]>[GB] | %7
w: stand- ard of our Cap- tain, Lo, there|comes a faith- ful few; But the|
w: fear to join our stand- ard, For our|ranks are tried and true, And the|
w: stand a- mong the vic- tors, With the|band of faith- ful few? Then the|
 [FA]>[FA] [FA]>[GB] [FA]>[DF] D>[DG] | [DF]2 [CE]2 !fermata!D2 ||"^Refrain" A2 | [Fd]>[Fd] x6 | %11
w: vic- to- ry, my bro- ther, May de-|pend on you.|||
w: vic- to- ry, my bro- ther, May de-|pend on you.|The|vic- t’ry|
w: vic- to- ry, my bro- ther, May de-|pend on you.|||
 [Fd]>[Fd] [Ec]2 [Ge]2 x2 | d6 [Ac]2 | [GB]>[GB] [GB]>[GB] [^GB]2 [Ge]2 | e6 A>[GA] | %15
w: ||||
w: may de- pend on|you, The|vic- t’ry may de- pend on|you; Dare to|
w: ||||
 [Fd]>[Fd] [Fd]>[Ac] [GB]2 | [GB]>[GB] x6 | [^Ge]>[Ge] [Ge]>[Bd] [Ac]2 [AB]>A | %18
w: |||
w: stand a- mong the few,|With the|faith- ful tried and true, For the|
w: |||
 [Ad]>[Ad] [Ad]>[Ge] [Fd]2 [Ec]2 | [Fd]6 |] %20
w: ||
w: vic- t’ry may de- pend on|you.|
w: ||
V:2
 x2 | x8 | x8 | x8 | x8 | x8 | x8 | x6 D3/2 x/ | x4 D2 || A2 | x8 | x8 | (F2 ^E2 F2) x2 | x8 | %14
 (G2 c2 B2) A3/2 x/ | x6 | x8 | x15/2 A/ | x8 | x6 |] %20
V:3
 [D,A,]>[D,A,] | [D,D]>[D,D] [D,D]>[D,D] [D,D]>[D,A,] [D,A,]>[D,A,] | %2
w: ~ ~|~ ~ ~ ~ ~ ~ ~ ~|
 [D,D]>[D,D] [D,D]>[D,D] [D,D]2 [D,D]>[D,D] | [G,D]>[G,C] [G,D]>[G,C] [G,B,]>[G,^A,] [G,B,]>[G,D] | %4
w: ~ ~ ~ ~ ~ ~ ~|~ ~ ~ ~ ~ ~ ~ ~|
 [D,D]>[D,D] [D,D]>[D,A,] !fermata![A,,A,]2 [D,A,]>[D,A,] | %5
w: ~ ~ ~ ~ ~ ~ ~|
 [D,D]>[D,D] [D,D]>[D,D] [D,D]>[D,A,] [D,A,]>[D,D] | %6
w: ~ ~ ~ ~ ~ ~ ~ ~|
 [G,D]>[G,D] [G,D]>[G,D] !fermata![G,B,]2 [G,C]>[G,D] | %7
w: ~ ~ ~ ~ ~ ~ ~|
 [D,D]>[D,D] [D,D]>[D,D] [D,D]>[D,A,] [B,,B,]>[G,,B,] | [A,,A,]2 [A,,G,]2 !fermata![D,F,]2 || A,2 | %10
w: ~ ~ ~ ~ ~ ~ ~ ~|~ ~ ~|~|
 [D,A,]>[D,A,] [D,A,]>[D,A,] [A,,A,]2 [A,,A,]2 | A,2 ^G,2 A,2 [F,D]2 | %12
w: ~ ~ ~ ~ ~ ~|~ on you, ~|
 [G,D]>[G,D] [G,D]>[G,D] [E,D]2 [E,D]2 | C2 E2 D2 [A,C]>A, | [D,A,]>[D,A,] [D,A,]>[F,D] [G,D]2 x2 | %15
w: ~ ~ ~ ~ ~ ~|~ on you; * *||
 [G,D]>[G,D] x4 | [E,D]>[E,D] [E,D]>[^G,E] [A,E]2 [=G,C]>[G,C] | %17
w: ||
 [F,D]>[F,D] [F,D]>[G,B,] A,2 [A,,A,]2 | [D,A,]6 x2 | x6 |] %20
w: |||
V:4
 x2 | x8 | x8 | x8 | x8 | x8 | x8 | x8 | x6 || A,2 | x8 | D,6 x2 | x8 | A,6 A,/ x3/2 | x8 | x6 | %16
 x8 | x4 A,2 x2 | x8 | x6 |] %20

